X: 86
T: Aman Sâkî Lûtfuna Âmâdeyim
C: Lem´i Atlı
O: Turkey
F: http://compmusic.upf.edu/node/140
N: mahur--sarki--musemmen--aman_saki--lemi_atli
N: makam= mahur
N: form= sarki
N: usul= musemmen = 8/8
M: 8/8
L: 1/16
K: C ^9/8f   
Q: 1/4=132
%%MIDI tuningsystem comma53
g2{a}gf e2e2 f2g6  | fgab ag^f3ed6  | \
w:  ARANAĞME  |   | 
c'4 _1/4bab2 a2b2 a2g2  | 
w:   | 
bag2 f2{a}g8-g2  | f2g2 a2a2 c'2{d'}b2 a2g2  | \
w:   |   | 
{g}f2e2 d2d2 {=f}edcB c2z2  | 
w:   | 
ag=fe d2d2 c2B2 A2G2  | _7/8BAG2 F2{A}G8-G2  | \
w:   |   | 
g2g3f(3ffe efg4z2  | 
w:  A man  *  sâ *  *  *  *  kî   | 
g4 a2a2 g2{a}g2 ^f2e2  | e4 d2d4z/d/A/B/ c/d/e/f/g2  | \
w:  lût fu na  *  *  â  |  mâ de yim   SAZ  | 
g2g4g4c'4b2  | 
w:  A man  sâ kî   | 
b4 b2_1/4b2 a2d'^c' _7/8bag2  | _7/8bag2 f2{a}g8-g2  | \
w:  lût fu na  *  â  |  mâ *  *  de *  yim    | 
a2{c'}_7/8ba g2f2 g2a6  | 
w:  SAZ  | 
g4 a2a2 c'2{c'}_7/8b2 a2g2  | =f4 {g}fe_2/4e2 d2d2 {f}edc2  | \
w:  Sen  bi lir *  *  sin   |  ki  *  e *  sîr_ *  i   | 
_3/4edc2 B2c8-c2  | 
w:  bâ *  *  de yim    | 
d2_3/4ed c2Bc dBc6  | =f4 a2g2 ^9/8fed6  | \
w:  SAZ  |  Sen  bi lir *  *  sin   | 
c4 c2c2 _7/8B2B3AG2  | 
w:  ki  e sîr_ *  i   | 
_7/8BAG2 F2{A}G8-G2  | d2_7/8ed c2_1/4B2 c2d6  | \
w:  bâ *  *  de *  yim    |  SAZ  | 
c4 d2d4a4_1/4e2  | _7/8e4 edd4g^f edc2  | 
w:  Bir  me lek  sî  |  mâ ya  *  hem  üf  | 
c2_1/4B2 {c}=BAA4Ad efg2  | g4 g2g4c'4b2  | \
w:  tâ *  *  de *  yim   SAZ  |  Bir  me lek  sî  | 
b4 baa4d'^c' _7/8bag2  | 
w:  mâ ya  *  hem  üf  | 
_7/8bag2 f2{a}g8-g2  | a2{c'}_7/8ba g2f2 g2a6  | \
w:  tâ *  *  de *  yim    |  SAZ  | 
g4 a2a2 c'2{c'}_7/8b2 a2g2  | =f4 {g}fe_2/4e2 d2d2 {f}edc2  | 
w:  Sen  bi lir *  *  sin   |  ki  *  e *  sîr_ *  i   | 
_3/4edc2 B2c8-c2  | d2_3/4ed c2Bc dBc6  | \
w:  bâ *  *  de yim    |  SAZ  | 
=f4 a2g2 ^9/8fed6  | 
w:  Sen  bi lir *  *  sin   | 
c4 c2c2 _7/8B2B3AG2  | _7/8BAG2 F2{A}G8-G2  | |


